X:1
T:Cárdenas, 88.888
T:Cárdenas, 88.888
T:Charles Crozat Converse, 1863
T:Public Domain Courtesy of the Cyber Hymnal™
C:Charles Crozat Converse, 1863
Z:Public Domain
Z:Courtesy of the Cyber Hymnal™
%%score ( 1 2 ) 3
L:1/8
Q:1/4=95
M:3/8
K:Bb
V:1 treble 
V:2 treble 
V:3 bass 
V:1
 [DF]2 [B,D] | [DF][DB][CA] | [Ec]2 [DB] | [Fd]2 [DF] | [EG]2 [EG] | ([EG][GB])[EG] | [DF]2 [DB] | %7
 !fermata![CA]2 F | ([Ac][FA])[EG] | [EF]2 [EF] | (FB)[Fc] | [Fd]3 | [Ee][Fd][Ec] | [EG]2 [GB] | %14
 ([FA][GB])[Ac] | [Bd]3 | [Ge][Fd][Ec] | [EG]2 [GB] | ([FA][EG])[EA] | [DB]3 |] %20
V:2
 x3 | x3 | x3 | x3 | x3 | x3 | x3 | x2 F | x3 | x3 | D2 x | x3 | x3 | x3 | x3 | x3 | x3 | x3 | x3 | %19
 x3 |] %20
V:3
 B,,2 B,, | B,,B,,B,, | B,,2 B,, | B,,2 B,, | E,2 E, | E,2 E, | B,,2 B,, | !fermata!F,2 F, | %8
 F,2 G, | A,2 A, | B,2 A, | B,3 | C,D,E, | E,2 E, | F,2 F, | B,,3 | C,D,E, | E,2 E, | F,2 F, | %19
 B,,3 |] %20

